packages/icons/general/NFTLink.svg

<svg width="25" height="24" viewBox="0 0 25 24" xmlns="http://www.w3.org/2000/svg">
<g>
        <path
            d="M0.5 12C0.5 5.37258 5.87258 0 12.5 0C19.1274 0 24.5 5.37258 24.5 12C24.5 18.6274 19.1274 24 12.5 24C5.87258 24 0.5 18.6274 0.5 12Z"
            fill="#F6F6F8"
        />
        <path
            d="M8.39886 14.5935C8.69406 14.7626 9.07782 14.7626 9.40255 14.5935L11.7051 13.2968L13.2697 12.4511L15.5723 11.1544C15.8675 10.9853 16.2513 10.9853 16.576 11.1544L18.4062 12.1692C18.7014 12.3383 18.9081 12.6484 18.9081 12.9867V14.9881C18.9081 15.3264 18.731 15.6364 18.4062 15.8056L16.6055 16.7922C16.3103 16.9613 15.9265 16.9613 15.6018 16.7922L13.8011 15.8056C13.5059 15.6364 13.2992 15.3264 13.2992 14.9881V13.6914L11.7346 14.5653V15.862C11.7346 16.2002 11.9118 16.5103 12.2365 16.6794L15.5723 18.5399C15.8675 18.709 16.2513 18.709 16.576 18.5399L19.9708 16.6794C20.2955 16.5103 20.4727 16.2002 20.4727 15.862V12.1128C20.4727 11.7746 20.2955 11.4645 19.9708 11.2954L16.576 9.43489C16.2808 9.26576 15.897 9.26576 15.5723 9.43489L13.2697 10.7034L11.7051 11.5772L9.40255 12.8457C9.10734 13.0149 8.72358 13.0149 8.39886 12.8457L6.59812 11.8591C6.30292 11.69 6.09627 11.3799 6.09627 11.0417V9.04025C6.09627 8.70198 6.2734 8.39191 6.59812 8.22277L8.39886 7.20797C8.69406 7.03884 9.07782 7.03884 9.40255 7.20797L11.2033 8.19458C11.4985 8.36372 11.7051 8.67379 11.7051 9.01206V10.3087L13.2697 9.43489V8.13821C13.2697 7.79994 13.0926 7.48986 12.7679 7.32073L9.37303 5.46026C9.07782 5.29113 8.69406 5.29113 8.36934 5.46026L4.9745 7.32073C4.6793 7.48986 4.47266 7.79994 4.47266 8.13821V11.8873C4.47266 12.2256 4.64978 12.5357 4.9745 12.7048L8.39886 14.5935Z"
            fill="#8247E5"
        />
        <path
            d="M8.39886 14.5932C8.69406 14.7623 9.07782 14.7623 9.40255 14.5932L11.7051 13.2965L13.2697 12.4509L15.5723 11.1542C15.8675 10.985 16.2513 10.985 16.576 11.1542L18.4062 12.169C18.7014 12.3381 18.9081 12.6482 18.9081 12.9864V14.9879C18.9081 15.3261 18.731 15.6362 18.4062 15.8053L16.6055 16.7919C16.3103 16.9611 15.9265 16.9611 15.6018 16.7919L13.8011 15.8053C13.5059 15.6362 13.2992 15.3261 13.2992 14.9879V13.6912L11.7346 14.565V15.8617C11.7346 16.2 11.9118 16.5101 12.2365 16.6792L15.5723 18.5397C15.8675 18.7088 16.2513 18.7088 16.576 18.5397L19.9708 16.6792C20.2955 16.5101 20.4727 16.2 20.4727 15.8617V12.1126C20.4727 11.7743 20.2955 11.4642 19.9708 11.2951L16.576 9.43465C16.2808 9.26552 15.897 9.26552 15.5723 9.43465L13.2697 10.7031L11.7051 11.577L9.40255 12.8455C9.10734 13.0146 8.72358 13.0146 8.39886 12.8455L6.59812 11.8589C6.30292 11.6898 6.09627 11.3797 6.09627 11.0414V9.04001C6.09627 8.70174 6.2734 8.39166 6.59812 8.22253L8.39886 7.20773C8.69406 7.0386 9.07782 7.0386 9.40255 7.20773L11.2033 8.19434C11.4985 8.36347 11.7051 8.67355 11.7051 9.01182V10.3085L13.2697 9.43465V8.13796C13.2697 7.7997 13.0926 7.48962 12.7679 7.32048L9.37303 5.46002C9.07782 5.29089 8.69406 5.29089 8.36934 5.46002L4.9745 7.32048C4.6793 7.48962 4.47266 7.7997 4.47266 8.13796V11.8871C4.47266 12.2253 4.64978 12.5354 4.9745 12.7046L8.39886 14.5932Z"
            fill="#8247E5"
        />
        <path
            d="M12.5 23C6.42487 23 1.5 18.0751 1.5 12H-0.5C-0.5 19.1797 5.3203 25 12.5 25V23ZM23.5 12C23.5 18.0751 18.5751 23 12.5 23V25C19.6797 25 25.5 19.1797 25.5 12H23.5ZM12.5 1C18.5751 1 23.5 5.92487 23.5 12H25.5C25.5 4.8203 19.6797 -1 12.5 -1V1ZM12.5 -1C5.3203 -1 -0.5 4.8203 -0.5 12H1.5C1.5 5.92487 6.42487 1 12.5 1V-1Z"
            fill="white"
        />
    </g>
</svg>

<svg xmlns="http://www.w3.org/2000/svg" viewBox="0 0 25 24">
    <path fill="#F6F6F8" d="M.5 12c0-6.627 5.373-12 12-12s12 5.373 12 12-5.373 12-12 12-12-5.373-12-12Z"/>
    <path fill="#8247E5" d="M8.399 14.594c.295.169.679.169 1.004 0l2.302-1.297 1.565-.846 2.302-1.297c.296-.169.68-.169 1.004 0l1.83 1.015c.295.17.502.48.502.818v2.001a.908.908 0 0 1-.502.818l-1.8.986c-.296.17-.68.17-1.004 0l-1.8-.986c-.296-.17-.503-.48-.503-.818v-1.297l-1.564.874v1.297c0 .338.177.648.502.817l3.335 1.86c.296.17.68.17 1.004 0l3.395-1.86a.908.908 0 0 0 .502-.817v-3.75a.908.908 0 0 0-.502-.817l-3.395-1.86a1.056 1.056 0 0 0-1.004 0l-2.302 1.268-1.565.874-2.302 1.269c-.296.169-.68.169-1.004 0l-1.8-.987c-.296-.169-.503-.48-.503-.817V9.04c0-.338.177-.648.502-.817l1.8-1.015c.296-.17.68-.17 1.005 0l1.8.987c.296.169.502.479.502.817v1.297l1.565-.874V8.138a.908.908 0 0 0-.502-.817L9.373 5.46a1.056 1.056 0 0 0-1.004 0L4.975 7.32c-.296.169-.502.479-.502.817v3.75c0 .338.177.648.502.817l3.424 1.889Z"/>
    <path fill="#8247E5" d="M8.399 14.593c.295.17.679.17 1.004 0l2.302-1.296 1.565-.846 2.302-1.297c.296-.169.68-.169 1.004 0l1.83 1.015c.295.17.502.48.502.817v2.002a.908.908 0 0 1-.502.817l-1.8.987c-.296.17-.68.17-1.004 0l-1.8-.987c-.296-.169-.503-.479-.503-.817V13.69l-1.564.874v1.297c0 .338.177.648.502.817l3.335 1.86c.296.17.68.17 1.004 0l3.395-1.86a.908.908 0 0 0 .502-.817v-3.75a.908.908 0 0 0-.502-.817l-3.395-1.86a1.056 1.056 0 0 0-1.004 0l-2.302 1.268-1.565.874-2.302 1.268c-.296.17-.68.17-1.004 0l-1.8-.986c-.296-.17-.503-.48-.503-.818v-2c0-.338.177-.648.502-.817l1.8-1.015c.296-.17.68-.17 1.005 0l1.8.986c.296.17.502.48.502.818v1.296l1.565-.873V8.138a.908.908 0 0 0-.502-.818L9.373 5.46a1.056 1.056 0 0 0-1.004 0L4.975 7.32c-.296.17-.502.48-.502.818v3.75a.91.91 0 0 0 .502.817l3.424 1.888Z"/>
    <path fill="#fff" d="M12.5 23c-6.075 0-11-4.925-11-11h-2c0 7.18 5.82 13 13 13v-2Zm11-11c0 6.075-4.925 11-11 11v2c7.18 0 13-5.82 13-13h-2Zm-11-11c6.075 0 11 4.925 11 11h2c0-7.18-5.82-13-13-13v2Zm0-2C5.32-1-.5 4.82-.5 12h2c0-6.075 4.925-11 11-11v-2Z"/>
</svg>
